src/app/assets/svg/list.svg

<svg fill="currentColor" xmlns="http://www.w3.org/2000/svg" viewBox="0 0 22 13"><path d="M6.5 13c-.8 0-1.5-.7-1.5-1.5S5.7 10 6.5 10h14c.8 0 1.5.7 1.5 1.5s-.7 1.5-1.5 1.5h-14zM0 11.5c0-.8.7-1.5 1.5-1.5s1.5.7 1.5 1.5S2.3 13 1.5 13 0 12.3 0 11.5zM6.5 8C5.7 8 5 7.3 5 6.5S5.7 5 6.5 5h14c.8 0 1.5.7 1.5 1.5S21.3 8 20.5 8h-14zM0 6.5C0 5.7.7 5 1.5 5S3 5.7 3 6.5 2.3 8 1.5 8 0 7.3 0 6.5zM6.5 3C5.7 3 5 2.3 5 1.5S5.7 0 6.5 0h14c.8 0 1.5.7 1.5 1.5S21.3 3 20.5 3h-14zM0 1.5C0 .7.7 0 1.5 0S3 .7 3 1.5 2.3 3 1.5 3 0 2.3 0 1.5z"/></svg>

<?xml version="1.0" encoding="utf-8"?>
<!-- Generator: Adobe Illustrator 22.0.1, SVG Export Plug-In . SVG Version: 6.00 Build 0)  -->
<svg fill="currentColor" version="1.1" id="Layer_1" xmlns="http://www.w3.org/2000/svg" xmlns:xlink="http://www.w3.org/1999/xlink" x="0px" y="0px"
	 viewBox="0 0 22 13" style="enable-background:new 0 0 22 13;" xml:space="preserve">
<path id="Прямоугольник_скругл._углы_7_копия_3" d="M6.5,13C5.7,13,5,12.3,5,11.5
	S5.7,10,6.5,10h14c0.8,0,1.5,0.7,1.5,1.5S21.3,13,20.5,13H6.5z M0,11.5C0,10.7,0.7,10,1.5,10S3,10.7,3,11.5S2.3,13,1.5,13
	S0,12.3,0,11.5z M6.5,8C5.7,8,5,7.3,5,6.5S5.7,5,6.5,5h14C21.3,5,22,5.7,22,6.5S21.3,8,20.5,8H6.5z M0,6.5C0,5.7,0.7,5,1.5,5
	S3,5.7,3,6.5S2.3,8,1.5,8S0,7.3,0,6.5z M6.5,3C5.7,3,5,2.3,5,1.5S5.7,0,6.5,0h14C21.3,0,22,0.7,22,1.5S21.3,3,20.5,3H6.5z M0,1.5
	C0,0.7,0.7,0,1.5,0S3,0.7,3,1.5S2.3,3,1.5,3S0,2.3,0,1.5z"/>
</svg>
